X:13
T:40th Birthday Hornpipe
O:england
C:Fredrik Jakobsson
R:hornpipe
M:C|
K:Gmix
BA|GEDE G2GB|AFAc BG~G2|Acfe dGBd|(3cBA BG AcBA|
GEDE G2GB|AFAc BG~G2|Acfe dGBd|G2GF G2:|
|:Bc|dgdB cfcA|BcAB GABG|AD~D2 c2Bc|dedB c2Bc|
dgdB cfcA|BcAB GABG|AD~D2 c2BA|G2GF G2:|
This file contains 100 jigs (#1 - #100).
You can find more abc tune files at http://home1.swipnet.se/~w-11382/abc.htm
I've transcribed them as I have learnt them, which does not necessarily mean
that I play them that way nowadays. Many of the tunes include variations and
different versions. If there is a source (S:) or discography (D:) included the
version transcribed might still not be exactly as that source played the tune,
since I might have changed the tune around a bit when I learnt it.
The tunes were learnt from sessions, from friends or from recordings.
When I've included discography, it's often just a reference to what recordings
the tune appears on.
Last updated 25 May 1998.
(c) Copyright 1996-1998 Henrik Norbeck. This file:
- May be distributed freely (with restrictions below).
- May not be used for commercial purposes (such as printing a tune book to sell).
- This file (or parts of it) may not be made available on a web page for
download without permission from me.
- This copyright notice must be kept, except when e-mailing individual tunes.
- May be printed on paper for personal use.
- Questions? E-mail: henrik.norbeck@mailbox.swipnet.se


